X:1
T:Title
%%score 1 2 3 4
L:1/8
M:3/2
K:G
V:1 treble nm="Choir Aahs"
V:2 treble nm="Choir Aahs"
V:3 bass nm="Choir Aahs"
V:4 bass nm="Choir Aahs"
V:1
 z4 | z12 | z12 | z12 | z4 z4 A4 | B3 A G4 B2 c2 | d3 e d4 ^c4 | d8 z4 | z12 | z12 | z12 | z12 | %12
 z12 | z12 | z4 z4 G3 A | B8 c4 | d4 G4 A4 | B3 A B4 c4 | d8 d4 | d2 ed c2 dc B2 cB | G4 A4 B4 | %21
 G4 F8 | G12 |] %23
V:2
 z4 | z12 | z12 | z12 | z12 | z12 | z12 | z12 | z12 | z12 | z12 | z4 z4 D4 | G3 F E4 D4 | %13
 E3 F G4 F4 | G8 D4 | D8 E3 F | G3 A G4 F4 | D8 G4 | F8 D4 | D12 | G4 F4 G4 | E4 D8 | D12 |] %23
V:3
 G,4 | B,3 C B,4 A,4 | G,3 A, G,4 B,2[K:treble] C2 | D3 E D4 C4 | B,8 z4 | z12 | z12 | z12 | z12 | %9
 z12 | z12 | z12 | z12 | z12 | z4 z4 B,3 C | D8 C4 | B,4 C4 D4 | B,3 D B,4 G,4 | A,8 A,4 | %19
 B,4 A,4 G,4 | D4 C4 B,4 | C4 A,8 | G,12 |] %23
V:4
 z4 | z12 | z12 | z12 | z12 | z12 | z12 | z4 z4 D,4 | G,3 A, B,4 A,4 | G,3 F, E,4 D,4 | %10
 G,3 A, G,4 G,,4 | D,8 z4 | z12 | z12 | z12 | G,3 A, B,4 A,4 | G,3 F, E,4 D,4 | G,3 A, G,4 G,,4 | %18
 D,8 D,4 | G,4 F,4 G,4 | B,,4 A,,4 G,,4 | C,4 D,8 | G,,12 |] %23

